X: 71
T:Gan Ainm
M:4/4
L:1/8
S:Terry Bingham, Comber, Down (Concertina)
R:Reel
H:A version of The Ladies Pantallettes?
D:Session tape, Cushendall 1993
H:
Z:Bernie Stocks
K:G
d3^c d2=cA | =F2cF dFcF | Add^c d3e | fdcA ABcA | Add^c d2=cA | =F2cF dFcF |\
Add^c d3e | fdcA G4 || g3e fdde | fgag fdd2 | g2ag fdde |\
fdcA BGG2 | g3e fdde | fgag fdd2 | fefg a3g | fdcA BGG2 ||
<end>
<start>
